svg/N_Arrows/33.svg

<svg xmlns="http://www.w3.org/2000/svg" viewBox="0 0 744.09 1052.36" xmlns:xlink="http://www.w3.org/1999/xlink"><defs><path id="0" d="m321.43 270.93h68.57v74.28h-68.57z"/></defs><g fill-rule="evenodd" stroke="#000"><path d="m420.81 382.33h20.708l-.253-20-10.979-10-10 10 .523 20z"/><path d="m316.37 500.75v-20.708l-20 .253-10 10.979 10 10 20-.523z"/><path d="m444.69 611.52h-20.708l.253 20 10.979 10 10-10-.523-20z"/><path d="m544.8 480.91v20.708l20-.253 10-10.979-10-10-20 .523z"/></g><g font-family="Arial Black" font-size="56"><flowRoot transform="translate(251.74 195.86)"><flowRegion><use xlink:href="#0"/></flowRegion><flowPara>E</flowPara></flowRoot><flowRoot transform="translate(82.65 32.494)"><flowRegion><use xlink:href="#0"/></flowRegion><flowPara>N</flowPara></flowRoot><flowRoot transform="translate(94.77 368)"><flowRegion><use xlink:href="#0"/></flowRegion><flowPara>S</flowPara></flowRoot><flowRoot transform="translate(-89.33 192.44)"><flowRegion><use xlink:href="#0"/></flowRegion><flowPara>W</flowPara></flowRoot></g><g stroke="#000" stroke-linejoin="round" stroke-miterlimit=".9"><path transform="matrix(.95234 0 0 .95696 20.955 24.299)" d="M539.42146 493.74783A109.09647 109.09647 0 1 1 321.22851 493.74783 109.09647 109.09647 0 1 1 539.42146 493.74783z" opacity=".97" fill="none" stroke-width="24.07"/><g stroke-width="6.934"><path opacity=".97" d="m402.96 528.51h55.736v62.806h-55.736z"/><path opacity=".97" d="m341.3 462.35h55.735v62.806h-55.735z"/><path opacity=".97" d="m402.46 395.17h55.736v62.806h-55.736z"/><path opacity=".97" d="m464.08 462.35h55.735v62.806h-55.735z"/></g></g></svg>

<?xml version="1.0" encoding="UTF-8" standalone="no"?>
<!-- Created with Inkscape (http://www.inkscape.org/) -->
<svg
   xmlns:dc="http://purl.org/dc/elements/1.1/"
   xmlns:cc="http://web.resource.org/cc/"
   xmlns:rdf="http://www.w3.org/1999/02/22-rdf-syntax-ns#"
   xmlns:svg="http://www.w3.org/2000/svg"
   xmlns="http://www.w3.org/2000/svg"
   xmlns:sodipodi="http://sodipodi.sourceforge.net/DTD/sodipodi-0.dtd"
   xmlns:inkscape="http://www.inkscape.org/namespaces/inkscape"
   width="744.09448819"
   height="1052.3622047"
   id="svg2"
   sodipodi:version="0.32"
   inkscape:version="0.44.1"
   sodipodi:docbase="F:\Qgis N_arrows\TOT"
   sodipodi:docname="FINALE.svg"
   inkscape:export-filename="F:\Qgis N_arrows\TOT\FINALE.png"
   inkscape:export-xdpi="300"
   inkscape:export-ydpi="300">
  <defs
     id="defs4" />
  <sodipodi:namedview
     id="base"
     pagecolor="#ffffff"
     bordercolor="#666666"
     borderopacity="1.0"
     inkscape:pageopacity="0.0"
     inkscape:pageshadow="2"
     inkscape:zoom="0.98994949"
     inkscape:cx="375"
     inkscape:cy="520"
     inkscape:document-units="px"
     inkscape:current-layer="layer1"
     showgrid="true"
     inkscape:window-width="1280"
     inkscape:window-height="744"
     inkscape:window-x="-4"
     inkscape:window-y="-4" />
  <metadata
     id="metadata7">
    <rdf:RDF>
      <cc:Work
         rdf:about="">
        <dc:format>image/svg+xml</dc:format>
        <dc:type
           rdf:resource="http://purl.org/dc/dcmitype/StillImage" />
      </cc:Work>
    </rdf:RDF>
  </metadata>
  <g
     inkscape:label="Livello 1"
     inkscape:groupmode="layer"
     id="layer1">
    <g
       id="g4734">
      <path
         id="path1940"
         d="M 420.81217,382.32553 L 441.5203,382.32553 L 441.26776,362.32553 L 430.28924,352.32553 L 420.28924,362.32553 L 420.81217,382.32553 z "
         style="fill:black;fill-opacity:1;fill-rule:evenodd;stroke:black;stroke-width:1px;stroke-linecap:butt;stroke-linejoin:miter;stroke-opacity:1" />
      <path
         id="path1944"
         d="M 316.37247,500.749 L 316.37247,480.04087 L 296.37247,480.29341 L 286.37247,491.27193 L 296.37247,501.27193 L 316.37247,500.749 z "
         style="fill:black;fill-opacity:1;fill-rule:evenodd;stroke:black;stroke-width:1px;stroke-linecap:butt;stroke-linejoin:miter;stroke-opacity:1" />
      <path
         id="path1946"
         d="M 444.69204,611.51947 L 423.98391,611.51947 L 424.23645,631.51947 L 435.21497,641.51947 L 445.21497,631.51947 L 444.69204,611.51947 z "
         style="fill:black;fill-opacity:1;fill-rule:evenodd;stroke:black;stroke-width:1px;stroke-linecap:butt;stroke-linejoin:miter;stroke-opacity:1" />
      <path
         id="path1948"
         d="M 544.79656,480.91011 L 544.79656,501.61824 L 564.79656,501.3657 L 574.79656,490.38718 L 564.79656,480.38718 L 544.79656,480.91011 z "
         style="fill:black;fill-opacity:1;fill-rule:evenodd;stroke:black;stroke-width:1px;stroke-linecap:butt;stroke-linejoin:miter;stroke-opacity:1" />
      <flowRoot
         transform="translate(251.7385,195.8562)"
         style="font-size:56px;font-family:Arial Black"
         id="flowRoot2798"
         xml:space="preserve"><flowRegion
           id="flowRegion2800"><rect
             style="font-size:56px;font-family:Arial Black"
             y="270.93362"
             x="321.42856"
             height="74.285713"
             width="68.571426"
             id="rect2802" /></flowRegion><flowPara
           id="flowPara2804">E</flowPara></flowRoot>      <flowRoot
         transform="translate(82.65034,32.49398)"
         style="font-size:56px;font-family:Arial Black"
         id="flowRoot2790"
         xml:space="preserve"><flowRegion
           id="flowRegion2792"><rect
             style="font-size:56px;font-family:Arial Black"
             y="270.93362"
             x="321.42856"
             height="74.285713"
             width="68.571426"
             id="rect2794" /></flowRegion><flowPara
           id="flowPara2796">N</flowPara></flowRoot>      <flowRoot
         transform="translate(94.7661,368.0014)"
         style="font-size:56px;font-family:Arial Black"
         id="flowRoot1980"
         xml:space="preserve"><flowRegion
           id="flowRegion1982"><rect
             style="font-size:56px;font-family:Arial Black"
             y="270.93362"
             x="321.42856"
             height="74.285713"
             width="68.571426"
             id="rect1984" /></flowRegion><flowPara
           id="flowPara1986">S</flowPara></flowRoot>      <flowRoot
         transform="translate(-89.33083,192.4386)"
         style="font-size:56px;font-family:Arial Black"
         id="flowRoot1988"
         xml:space="preserve"><flowRegion
           id="flowRegion1990"><rect
             style="font-size:56px;font-family:Arial Black"
             y="270.93362"
             x="321.42856"
             height="74.285713"
             width="68.571426"
             id="rect1992" /></flowRegion><flowPara
           id="flowPara1994">W</flowPara></flowRoot>      <path
         transform="matrix(0.952336,0,0,0.956965,20.95538,24.29912)"
         d="M 539.42146 493.74783 A 109.09647 109.09647 0 1 1  321.22851,493.74783 A 109.09647 109.09647 0 1 1  539.42146 493.74783 z"
         sodipodi:ry="109.09647"
         sodipodi:rx="109.09647"
         sodipodi:cy="493.74783"
         sodipodi:cx="430.32498"
         id="path2069"
         style="opacity:0.97000002;fill:none;fill-opacity:1;stroke:black;stroke-width:24.07065993;stroke-linejoin:round;stroke-miterlimit:0.89999998;stroke-dasharray:none;stroke-opacity:1"
         sodipodi:type="arc" />
      <rect
         y="528.5097"
         x="402.96243"
         height="62.806278"
         width="55.73521"
         id="rect2956"
         style="opacity:0.97000002;fill:black;fill-opacity:1;stroke:black;stroke-width:6.93448257;stroke-linejoin:round;stroke-miterlimit:0.89999998;stroke-dasharray:none;stroke-opacity:1" />
      <rect
         y="462.34467"
         x="341.30261"
         height="62.806278"
         width="55.73521"
         id="rect3843"
         style="opacity:0.97000002;fill:black;fill-opacity:1;stroke:black;stroke-width:6.93448257;stroke-linejoin:round;stroke-miterlimit:0.89999998;stroke-dasharray:none;stroke-opacity:1" />
      <rect
         y="395.16953"
         x="402.4574"
         height="62.806278"
         width="55.73521"
         id="rect3845"
         style="opacity:0.97000002;fill:black;fill-opacity:1;stroke:black;stroke-width:6.93448257;stroke-linejoin:round;stroke-miterlimit:0.89999998;stroke-dasharray:none;stroke-opacity:1" />
      <rect
         y="462.34467"
         x="464.07666"
         height="62.806278"
         width="55.73521"
         id="rect3847"
         style="opacity:0.97000002;fill:black;fill-opacity:1;stroke:black;stroke-width:6.93448257;stroke-linejoin:round;stroke-miterlimit:0.89999998;stroke-dasharray:none;stroke-opacity:1" />
    </g>
  </g>
</svg>
